!!!OTL: BRAUCHT WEITER SIE WAS
!!!ARE: Europa, Mitteleuropa, Deutschland
!!!SCT: F0169A
!!!YEM: Copyright 1995, estate of Helmut Schaffrath.
**kern
*ICvox
*Ivox
*M3/8
*k[b-]
*F:
{8f
=1
8f
16g
16f
16e
16f
=2
8g
8r}
{8g
=3
8g
16f#
16g
16a
16bn
=4
8cc
8r}
{8f
=5
8f
16g
16a
16b-
16cc
=6
4dd}
{16dd
16dd
=7
16dd
16cc
16b-
16a
16b-
16g
=8
4f}
==
!!!AGN: Liebes - Lied
!! Strophenvariante von F0169
!!!ONB: ESAC (Essen Associative Code) Database: FINK
!!!AMT: simple triple
!!!AIN: vox
!!!EED: Helmut Schaffrath
!!!EEV: 1.0
*-
